X: 1
T: Na Ceannabhain Bhana
R: slip jig
M: 9/8
L: 1/8
K: Gmaj
B2 G AGE GED |E/F/GE DEG A2 c|BAG AGE GED| E/F/GE DEF G2 A :||
Bd/d/d edB BAG |Bd/d/d edB A3|Bd/d/d edB BAG |GED DEF G3 :|]


Tune 612	Setting 22281

